src/topics/icons/embedly.svg

<svg height="292" preserveAspectRatio="xMidYMid" viewBox="0 0 256 292" width="256" xmlns="http://www.w3.org/2000/svg"><path d="m128.152 0 103.256 94.579c33.299 30.501 34.231 82.681 2.044 114.353l-68.057 66.966c-20.796 20.462-54.205 20.316-74.821-.328l-66.517-66.608c-31.476-31.519-30.614-82.835 1.903-113.28z" fill="#4ec6e6"/><path d="m197.351 126.961-68.538-66.822-76.331 72.49c-7.93 7.93-8.591 30.937.992 40.519l75.009 72.696.33-33.043-52.539-50.227c-5.426-5.425-4.93-11.756.496-17.182l16.356-15.985 78.437 75.711 26.632-26.434c14.631-14.705 13.259-37.62-.844-51.723zm-17.687 34.714-10.146 10.146-59.209-57.49 19.371-20.239 49.235 46.922c6.953 6.952 7.701 13.709.749 20.661z" fill="#fff"/></svg>

<?xml version="1.0" encoding="UTF-8" standalone="no"?>
<svg width="256px" height="292px" viewBox="0 0 256 292" version="1.1" xmlns="http://www.w3.org/2000/svg" xmlns:xlink="http://www.w3.org/1999/xlink" preserveAspectRatio="xMidYMid">
	<g>
		<path d="M128.152,0 L231.408,94.579 C264.707,125.08 265.639,177.26 233.452,208.932 L165.395,275.898 C144.599,296.36 111.19,296.214 90.574,275.57 L24.057,208.962 C-7.419,177.443 -6.557,126.127 25.96,95.682 L128.152,0" fill="#4EC6E6"></path>
		<path d="M197.351,126.961 L128.813,60.139 L52.482,132.629 C44.552,140.559 43.891,163.566 53.474,173.148 L128.483,245.844 L128.813,212.801 L76.274,162.574 C70.848,157.149 71.344,150.818 76.77,145.392 L93.126,129.407 L171.563,205.118 L198.195,178.684 C212.826,163.979 211.454,141.064 197.351,126.961 L197.351,126.961 Z M179.664,161.675 L169.518,171.821 L110.309,114.331 L129.68,94.092 L178.915,141.014 C185.868,147.966 186.616,154.723 179.664,161.675 L179.664,161.675 Z" fill="#FFFFFF"></path>
	</g>
</svg>
